papirus/22x22/apps/devassistant.svg

<svg height="22" viewBox="0 0 44 44.000001" width="22" xmlns="http://www.w3.org/2000/svg"><g transform="translate(-2 -1)"><path d="m12 22.644532v1l7.945312 6.355468h1.25zm-8 11.355468v1c0 4 4 4 4 4h36l-1.25-1h-34.75c0 0-4 0-4-4z" opacity=".2"/><path d="m44 39v-28c0-4-4-4-4-4h-36zm-8-16.64454l-9.195312-7.35546h9.195312z" fill="#3f51b5"/><path d="m4 7v28c0 4 4 4 4 4h36zm8 16.64454l9.195312 7.35546h-9.195312z" fill="#03a9f4"/><path d="m4 7l2.5 2h33.5c0 0 4 0 4 4v-2c0-4-4-4-4-4zm22.804688 10l9.195312 7.35546v-2l-6.695312-5.35546z" fill="#fff" opacity=".2"/><path d="m4 7v2l37.5 30h2.5zm8 24v2h9.195312l-2.5-2z" fill="#fff" opacity=".2"/><path d="m44 39l-2.5-2h-33.5c0 0-4 0-4-4v2c0 4 4 4 4 4zm-22.804688-10l-9.195312-7.35546v2l6.695312 5.35546z" opacity=".1"/><path d="m44 39v-2l-37.5-30h-2.5zm-8-24v-2h-9.195312l2.5 2z" opacity=".1"/></g></svg>

<?xml version="1.0" encoding="UTF-8" standalone="no"?>
<!-- Created with Inkscape (http://www.inkscape.org/) -->

<svg
   xmlns:dc="http://purl.org/dc/elements/1.1/"
   xmlns:cc="http://creativecommons.org/ns#"
   xmlns:rdf="http://www.w3.org/1999/02/22-rdf-syntax-ns#"
   xmlns:svg="http://www.w3.org/2000/svg"
   xmlns="http://www.w3.org/2000/svg"
   xmlns:sodipodi="http://sodipodi.sourceforge.net/DTD/sodipodi-0.dtd"
   xmlns:inkscape="http://www.inkscape.org/namespaces/inkscape"
   id="svg4398"
   height="22"
   width="22"
   version="1.1"
   viewBox="0 0 44 44.000001"
   inkscape:version="0.91 r13725"
   sodipodi:docname="devassistant.svg">
  <defs
     id="defs14" />
  <sodipodi:namedview
     pagecolor="#ffffff"
     bordercolor="#666666"
     borderopacity="1"
     objecttolerance="10"
     gridtolerance="10"
     guidetolerance="10"
     inkscape:pageopacity="0"
     inkscape:pageshadow="2"
     inkscape:window-width="1600"
     inkscape:window-height="846"
     id="namedview12"
     showgrid="false"
     inkscape:zoom="3.52"
     inkscape:cx="-83.414773"
     inkscape:cy="10"
     inkscape:window-x="0"
     inkscape:window-y="0"
     inkscape:window-maximized="1"
     inkscape:current-layer="svg4398" />
  <metadata
     id="metadata4403">
    <rdf:RDF>
      <cc:Work
         rdf:about="">
        <dc:format>image/svg+xml</dc:format>
        <dc:type
           rdf:resource="http://purl.org/dc/dcmitype/StillImage" />
        <dc:title></dc:title>
      </cc:Work>
    </rdf:RDF>
  </metadata>
  <g
     id="g4175"
     transform="translate(-2,-1)">
    <path
       inkscape:connector-curvature="0"
       id="path4566"
       d="m 12,22.644532 0,1 L 19.945312,30 l 1.25,0 L 12,22.644532 Z M 4,34 4,35 c 0,4 4,4 4,4 L 44,39 42.75,38 8,38 c 0,0 -4,0 -4,-4 z"
       style="opacity:0.2;fill:#000000;fill-opacity:1;stroke:none" />
    <path
       inkscape:connector-curvature="0"
       style="fill:#3f51b5;fill-opacity:1;stroke:none"
       d="M 44,39 44,11 C 44,7 40,7 40,7 L 4,7 44,39 Z M 36,22.35546 26.804688,15 36,15 l 0,7.35546 z"
       id="path4499" />
    <path
       inkscape:connector-curvature="0"
       id="rect4243"
       d="m 4,7 0,28 c 0,4 4,4 4,4 L 44,39 4,7 Z M 12,23.64454 21.195312,31 12,31 12,23.64454 Z"
       style="fill:#03a9f4;fill-opacity:1;stroke:none" />
    <path
       inkscape:connector-curvature="0"
       id="path4510"
       d="M 4,7 6.5,9 40,9 c 0,0 4,0 4,4 l 0,-2 C 44,7 40,7 40,7 L 4,7 Z M 26.804688,17 36,24.35546 l 0,-2 L 29.304688,17 l -2.5,0 z"
       style="opacity:0.2;fill:#ffffff;fill-opacity:1;stroke:none" />
    <path
       inkscape:connector-curvature="0"
       id="path4514"
       d="M 4,7 4,9 41.5,39 44,39 4,7 Z m 8,24 0,2 9.195312,0 -2.5,-2 L 12,31 Z"
       style="opacity:0.2;fill:#ffffff;fill-opacity:1;stroke:none" />
    <path
       style="opacity:0.1;fill:#000000;fill-opacity:1;stroke:none"
       d="M 44,39 41.5,37 8,37 c 0,0 -4,0 -4,-4 l 0,2 c 0,4 4,4 4,4 l 36,0 z M 21.195312,29 12,21.64454 l 0,2 6.695312,5.35546 2.5,0 z"
       id="path4552"
       inkscape:connector-curvature="0" />
    <path
       style="opacity:0.1;fill:#000000;fill-opacity:1;stroke:none"
       d="M 44,39 44,37 6.5,7 4,7 44,39 Z m -8,-24 0,-2 -9.195312,0 2.5,2 L 36,15 Z"
       id="path4554"
       inkscape:connector-curvature="0" />
  </g>
</svg>
